X:1
T:Turkish March alternate / Rondo (theme)
C:Wolfgang Amadeus Mozart
M:2/4
L:1/8
Q:144
K:A
% B section — A major contrasting theme, lyrical and flowing
|: e2 eA | BcBA | e2 d2 | cBAB |
   c2 cA | BcdB | ABcd | e4 :|
   ecec | BABc | dcdB | ABcd |
   ecec | BABc | dcBA | A4 |]
